elements/app-hax/lib/assets/images/TechDesktop.svg

<svg xmlns="http://www.w3.org/2000/svg" fill="none" width="387" height="309" viewBox="0 0 387 309"><g clip-path="url(#a)"><path d="M0 0h387v309H0z" fill="#fff"/><path d="M0 0h387v309H0z" fill="#C4C4C4"/><path d="M52 19h126v126H52z" stroke="#000" stroke-width="8"/><path d="M144.125 41.583h-59.25c-3.62 0-6.583 2.963-6.583 6.584v39.5c0 3.62 2.962 6.583 6.583 6.583h23.042v6.583h-6.584v6.584h26.334v-6.584h-6.584V94.25h23.042c3.621 0 6.583-2.963 6.583-6.583v-39.5c0-3.621-2.962-6.584-6.583-6.584Zm0 46.084h-59.25v-39.5h59.25v39.5ZM67.75 129.75v-7.5h-2.5V121h7.5v1.25h-2.5v7.5h-2.5Zm7.5 0v-1.25H74v-3.75h1.25v-1.25h6.25v1.25h1.25v2.5H76.5v1.25h5v1.25h-6.25ZM76.5 126h3.75v-1.25H76.5V126Zm8.75 3.75v-1.25H84v-3.75h1.25v-1.25h7.5v1.25H86.5v3.75h6.25v1.25h-7.5Zm8.75 0V121h2.5v2.5h5v1.25h1.25v5h-2.5v-5H96.5v5H94Zm10 0v-6.25h7.5v1.25h1.25v5h-2.5v-5h-3.75v5H104Zm11.25 0v-1.25H114v-3.75h1.25v-1.25h6.25v1.25h1.25v3.75h-1.25v1.25h-6.25Zm1.25-1.25h3.75v-3.75h-3.75v3.75Zm8.75 1.25v-1.25h2.5v-6.25h-1.25V121h3.75v7.5h2.5v1.25h-7.5Zm10 0v-1.25H134v-3.75h1.25v-1.25h6.25v1.25h1.25v3.75h-1.25v1.25h-6.25Zm1.25-1.25h3.75v-3.75h-3.75v3.75Zm8.75 2.5v-1.25h5v-1.25h-5v-1.25H144v-2.5h1.25v-1.25h7.5v6.25h-1.25V131h-6.25Zm1.25-3.75h3.75v-2.5h-3.75v2.5Zm8.75 3.75v-1.25h5v-1.25h-5v-1.25H154v-3.75h2.5v3.75h3.75v-3.75h2.5v6.25h-1.25V131h-6.25Z" fill="#000"/><path d="M45 15v134M185 15v134" stroke="#000" stroke-width="7"/><path d="M52 164h126v126H52z" fill="#373737" stroke="#fff" stroke-width="8"/><path d="M67.75 273.75v-7.5h-2.5V265h7.5v1.25h-2.5v7.5h-2.5Zm7.5 0v-1.25H74v-3.75h1.25v-1.25h6.25v1.25h1.25v2.5H76.5v1.25h5v1.25h-6.25ZM76.5 270h3.75v-1.25H76.5V270Zm8.75 3.75v-1.25H84v-3.75h1.25v-1.25h7.5v1.25H86.5v3.75h6.25v1.25h-7.5Zm8.75 0V265h2.5v2.5h5v1.25h1.25v5h-2.5v-5H96.5v5H94Zm10 0v-6.25h7.5v1.25h1.25v5h-2.5v-5h-3.75v5H104Zm11.25 0v-1.25H114v-3.75h1.25v-1.25h6.25v1.25h1.25v3.75h-1.25v1.25h-6.25Zm1.25-1.25h3.75v-3.75h-3.75v3.75Zm8.75 1.25v-1.25h2.5v-6.25h-1.25V265h3.75v7.5h2.5v1.25h-7.5Zm10 0v-1.25H134v-3.75h1.25v-1.25h6.25v1.25h1.25v3.75h-1.25v1.25h-6.25Zm1.25-1.25h3.75v-3.75h-3.75v3.75Zm8.75 2.5v-1.25h5v-1.25h-5v-1.25H144v-2.5h1.25v-1.25h7.5v6.25h-1.25V275h-6.25Zm1.25-3.75h3.75v-2.5h-3.75v2.5Zm8.75 3.75v-1.25h5v-1.25h-5v-1.25H154v-3.75h2.5v3.75h3.75v-3.75h2.5v6.25h-1.25V275h-6.25Zm-10.417-91h-59.25c-3.62 0-6.583 2.962-6.583 6.583v39.5c0 3.621 2.963 6.584 6.583 6.584h23.042v6.583h-6.583v6.583h26.333v-6.583h-6.583v-6.583h23.041c3.621 0 6.584-2.963 6.584-6.584v-39.5c0-3.621-2.963-6.583-6.584-6.583Zm0 46.083h-59.25v-39.5h59.25v39.5Z" fill="#fff"/><path d="M45 160v134m140-134v134" stroke="#fff" stroke-width="7"/><rect width="179" height="318" x="25.5" y="-4.5" stroke="#7B61FF" stroke-dasharray="10 5" rx="4.5"/><path d="M238 102h126v126H238z" stroke="#000" stroke-width="8"/><path d="M330.125 124.583h-59.25c-3.621 0-6.583 2.963-6.583 6.584v39.5c0 3.62 2.962 6.583 6.583 6.583h23.042v6.583h-6.584v6.584h26.334v-6.584h-6.584v-6.583h23.042c3.621 0 6.583-2.963 6.583-6.583v-39.5c0-3.621-2.962-6.584-6.583-6.584Zm0 46.084h-59.25v-39.5h59.25v39.5ZM253.75 212.75v-7.5h-2.5V204h7.5v1.25h-2.5v7.5h-2.5Zm7.5 0v-1.25H260v-3.75h1.25v-1.25h6.25v1.25h1.25v2.5h-6.25v1.25h5v1.25h-6.25Zm1.25-3.75h3.75v-1.25h-3.75V209Zm8.75 3.75v-1.25H270v-3.75h1.25v-1.25h7.5v1.25h-6.25v3.75h6.25v1.25h-7.5Zm8.75 0V204h2.5v2.5h5v1.25h1.25v5h-2.5v-5h-3.75v5H280Zm10 0v-6.25h7.5v1.25h1.25v5h-2.5v-5h-3.75v5H290Zm11.25 0v-1.25H300v-3.75h1.25v-1.25h6.25v1.25h1.25v3.75h-1.25v1.25h-6.25Zm1.25-1.25h3.75v-3.75h-3.75v3.75Zm8.75 1.25v-1.25h2.5v-6.25h-1.25V204h3.75v7.5h2.5v1.25h-7.5Zm10 0v-1.25H320v-3.75h1.25v-1.25h6.25v1.25h1.25v3.75h-1.25v1.25h-6.25Zm1.25-1.25h3.75v-3.75h-3.75v3.75Zm8.75 2.5v-1.25h5v-1.25h-5v-1.25H330v-2.5h1.25v-1.25h7.5v6.25h-1.25V214h-6.25Zm1.25-3.75h3.75v-2.5h-3.75v2.5Zm8.75 3.75v-1.25h5v-1.25h-5v-1.25H340v-3.75h2.5v3.75h3.75v-3.75h2.5v6.25h-1.25V214h-6.25Z" fill="#000"/><path d="M231 98v134M371 98v134" stroke="#000" stroke-width="7"/></g><defs><clipPath id="a"><path d="M0 0h387v309H0z" fill="#fff"/></clipPath></defs></svg>

<svg width="387" height="309" viewBox="0 0 387 309" fill="none" xmlns="http://www.w3.org/2000/svg">
<g clip-path="url(#clip0_14_20)">
<rect width="387" height="309" fill="white"/>
<rect width="387" height="309" fill="#C4C4C4"/>
<rect x="52" y="19" width="126" height="126" stroke="black" stroke-width="8"/>
<path d="M144.125 41.5833H84.875C81.2542 41.5833 78.2917 44.5458 78.2917 48.1667V87.6667C78.2917 91.2875 81.2542 94.25 84.875 94.25H107.917V100.833H101.333V107.417H127.667V100.833H121.083V94.25H144.125C147.746 94.25 150.708 91.2875 150.708 87.6667V48.1667C150.708 44.5458 147.746 41.5833 144.125 41.5833ZM144.125 87.6667H84.875V48.1667H144.125V87.6667Z" fill="black"/>
<path d="M67.75 129.75V122.25H65.25V121H72.75V122.25H70.25V129.75H67.75ZM75.25 129.75V128.5H74V124.75H75.25V123.5H81.5V124.75H82.75V127.25H76.5V128.5H81.5V129.75H75.25ZM76.5 126H80.25V124.75H76.5V126ZM85.25 129.75V128.5H84V124.75H85.25V123.5H92.75V124.75H86.5V128.5H92.75V129.75H85.25ZM94 129.75V121H96.5V123.5H101.5V124.75H102.75V129.75H100.25V124.75H96.5V129.75H94ZM104 129.75V123.5H111.5V124.75H112.75V129.75H110.25V124.75H106.5V129.75H104ZM115.25 129.75V128.5H114V124.75H115.25V123.5H121.5V124.75H122.75V128.5H121.5V129.75H115.25ZM116.5 128.5H120.25V124.75H116.5V128.5ZM125.25 129.75V128.5H127.75V122.25H126.5V121H130.25V128.5H132.75V129.75H125.25ZM135.25 129.75V128.5H134V124.75H135.25V123.5H141.5V124.75H142.75V128.5H141.5V129.75H135.25ZM136.5 128.5H140.25V124.75H136.5V128.5ZM145.25 131V129.75H150.25V128.5H145.25V127.25H144V124.75H145.25V123.5H152.75V129.75H151.5V131H145.25ZM146.5 127.25H150.25V124.75H146.5V127.25ZM155.25 131V129.75H160.25V128.5H155.25V127.25H154V123.5H156.5V127.25H160.25V123.5H162.75V129.75H161.5V131H155.25Z" fill="black"/>
<path d="M45 15V149" stroke="black" stroke-width="7"/>
<path d="M185 15V149" stroke="black" stroke-width="7"/>
<rect x="52" y="164" width="126" height="126" fill="#373737" stroke="white" stroke-width="8"/>
<path d="M67.75 273.75V266.25H65.25V265H72.75V266.25H70.25V273.75H67.75ZM75.25 273.75V272.5H74V268.75H75.25V267.5H81.5V268.75H82.75V271.25H76.5V272.5H81.5V273.75H75.25ZM76.5 270H80.25V268.75H76.5V270ZM85.25 273.75V272.5H84V268.75H85.25V267.5H92.75V268.75H86.5V272.5H92.75V273.75H85.25ZM94 273.75V265H96.5V267.5H101.5V268.75H102.75V273.75H100.25V268.75H96.5V273.75H94ZM104 273.75V267.5H111.5V268.75H112.75V273.75H110.25V268.75H106.5V273.75H104ZM115.25 273.75V272.5H114V268.75H115.25V267.5H121.5V268.75H122.75V272.5H121.5V273.75H115.25ZM116.5 272.5H120.25V268.75H116.5V272.5ZM125.25 273.75V272.5H127.75V266.25H126.5V265H130.25V272.5H132.75V273.75H125.25ZM135.25 273.75V272.5H134V268.75H135.25V267.5H141.5V268.75H142.75V272.5H141.5V273.75H135.25ZM136.5 272.5H140.25V268.75H136.5V272.5ZM145.25 275V273.75H150.25V272.5H145.25V271.25H144V268.75H145.25V267.5H152.75V273.75H151.5V275H145.25ZM146.5 271.25H150.25V268.75H146.5V271.25ZM155.25 275V273.75H160.25V272.5H155.25V271.25H154V267.5H156.5V271.25H160.25V267.5H162.75V273.75H161.5V275H155.25Z" fill="white"/>
<path d="M144.833 184H85.5833C81.9625 184 79 186.962 79 190.583V230.083C79 233.704 81.9625 236.667 85.5833 236.667H108.625V243.25H102.042V249.833H128.375V243.25H121.792V236.667H144.833C148.454 236.667 151.417 233.704 151.417 230.083V190.583C151.417 186.962 148.454 184 144.833 184ZM144.833 230.083H85.5833V190.583H144.833V230.083Z" fill="white"/>
<path d="M45 160V294" stroke="white" stroke-width="7"/>
<path d="M185 160V294" stroke="white" stroke-width="7"/>
<rect x="25.5" y="-4.5" width="179" height="318" rx="4.5" stroke="#7B61FF" stroke-dasharray="10 5"/>
<rect x="238" y="102" width="126" height="126" stroke="black" stroke-width="8"/>
<path d="M330.125 124.583H270.875C267.254 124.583 264.292 127.546 264.292 131.167V170.667C264.292 174.287 267.254 177.25 270.875 177.25H293.917V183.833H287.333V190.417H313.667V183.833H307.083V177.25H330.125C333.746 177.25 336.708 174.287 336.708 170.667V131.167C336.708 127.546 333.746 124.583 330.125 124.583ZM330.125 170.667H270.875V131.167H330.125V170.667Z" fill="black"/>
<path d="M253.75 212.75V205.25H251.25V204H258.75V205.25H256.25V212.75H253.75ZM261.25 212.75V211.5H260V207.75H261.25V206.5H267.5V207.75H268.75V210.25H262.5V211.5H267.5V212.75H261.25ZM262.5 209H266.25V207.75H262.5V209ZM271.25 212.75V211.5H270V207.75H271.25V206.5H278.75V207.75H272.5V211.5H278.75V212.75H271.25ZM280 212.75V204H282.5V206.5H287.5V207.75H288.75V212.75H286.25V207.75H282.5V212.75H280ZM290 212.75V206.5H297.5V207.75H298.75V212.75H296.25V207.75H292.5V212.75H290ZM301.25 212.75V211.5H300V207.75H301.25V206.5H307.5V207.75H308.75V211.5H307.5V212.75H301.25ZM302.5 211.5H306.25V207.75H302.5V211.5ZM311.25 212.75V211.5H313.75V205.25H312.5V204H316.25V211.5H318.75V212.75H311.25ZM321.25 212.75V211.5H320V207.75H321.25V206.5H327.5V207.75H328.75V211.5H327.5V212.75H321.25ZM322.5 211.5H326.25V207.75H322.5V211.5ZM331.25 214V212.75H336.25V211.5H331.25V210.25H330V207.75H331.25V206.5H338.75V212.75H337.5V214H331.25ZM332.5 210.25H336.25V207.75H332.5V210.25ZM341.25 214V212.75H346.25V211.5H341.25V210.25H340V206.5H342.5V210.25H346.25V206.5H348.75V212.75H347.5V214H341.25Z" fill="black"/>
<path d="M231 98V232" stroke="black" stroke-width="7"/>
<path d="M371 98V232" stroke="black" stroke-width="7"/>
</g>
<defs>
<clipPath id="clip0_14_20">
<rect width="387" height="309" fill="white"/>
</clipPath>
</defs>
</svg>
